packages/sources/icons/src/vitamix/money-euro-box-fill.svg

<svg width="16" height="16" viewBox="0 0 16 16" xmlns="http://www.w3.org/2000/svg"><path fill-rule="evenodd" clip-rule="evenodd" d="M14 2H2.00004C1.63185 2 1.33337 2.29848 1.33337 2.66667V13.3333C1.33337 13.7015 1.63185 14 2.00004 14H14C14.3682 14 14.6667 13.7015 14.6667 13.3333V2.66667C14.6667 2.29848 14.3682 2 14 2ZM7.78688 6.09137C7.23067 6.28435 6.81754 6.75645 6.70004 7.33333L10 7.334V8.66733L6.70004 8.66667C6.81772 9.24344 7.23093 9.71535 7.78711 9.90818C8.34328 10.101 8.95993 9.98615 9.40937 9.606L10.5434 10.362C9.74815 11.2287 8.5198 11.5507 7.40165 11.1856C6.2835 10.8205 5.48188 9.83565 5.35137 8.66667H4.66671V7.33333H5.35204C5.48277 6.16465 6.28427 5.18013 7.40214 4.81506C8.52001 4.45 9.74809 4.77173 10.5434 5.638L9.40937 6.39333C8.95983 6.01318 8.34308 5.8984 7.78688 6.09137Z"/></svg>

<svg width="16" height="16" xmlns="http://www.w3.org/2000/svg"><path fill-rule="evenodd" clip-rule="evenodd" d="M14 2H2a.667.667 0 0 0-.667.667v10.666c0 .368.299.667.667.667h12a.667.667 0 0 0 .667-.667V2.667A.667.667 0 0 0 14 2ZM7.787 6.091c-.556.193-.97.665-1.087 1.242l3.3.001v1.333H6.7a1.667 1.667 0 0 0 2.71.939l1.133.756a3 3 0 0 1-5.192-1.695h-.684V7.333h.685a3 3 0 0 1 5.191-1.695l-1.134.755a1.667 1.667 0 0 0-1.622-.302Z"/></svg>
